X: 156
T:Reel of Mullinavat
M:C
L:1/8
Q:224
S:heike
K:E minor
ef | g{a}gfg edBA | GBAG {F}E2 B,E | GE (3EEE GABd | eBBA Bdef | 
 g{a}gfg edBA | GBAG{F}E2 B,E | GE (3EEE GFGA | BeeB e2 :|
|: f | gB (3BBB gabg | afdf afdf | gB ~B2 gabg | afdf (3eee f |
 g2 {a}gf gbag | fdAd fa (3aaa | bgaf gfed | BeeB {g}e3 :|
